X:425
T:Reel 425
M:4/4
K:Dmaj
L:1/8
F2FE D2B,D|FEDF EDB,D|F2EF D2DB,|A,B,DE FDD2:|FAAB d2dA|FAAF EDB,D|FAAB A2dB|AFED B,DD2|FAAF G2Gc|AABA EFB,2|FAAc BABA|dBAF EDD2|
